assets/img/another/icon-3.svg

<svg width="83" height="90" viewBox="0 0 83 90" fill="none" xmlns="http://www.w3.org/2000/svg">
<g clip-path="url(#clip0_192_19914)">
<path opacity="0.3" d="M50.5797 53.428C56.1477 53.7878 58.9857 52.4926 61.644 52.0068C62.2187 51.8989 63.1527 51.737 64.2843 51.5571C65.2542 49.0206 65.6314 46.4482 65.5057 44.1995C65.4338 42.8863 65.2722 41.6091 65.0207 40.3498C60.8177 40.6916 60.7279 42.5985 56.938 44.3255C52.753 46.2323 48.3525 44.5413 48.6578 41.717C48.9452 38.8747 48.7296 37.8134 45.1733 30.114C44.0058 27.5595 43.7723 25.6167 43.9699 24.1236C39.3897 23.8537 35.5998 23.9797 35.5998 23.9797C35.5998 23.9797 28.4332 24.8431 24.0146 30.114C24.2122 30.15 27.8045 30.8336 30.2473 34.9711C32.7619 39.2345 26.6729 41.9869 30.2473 44.3255C33.8216 46.682 34.1808 53.7698 34.1808 56.9719C34.1808 58.8967 33.5342 61.2893 32.0075 62.8903C33.9294 63.5739 36.1386 64.0956 38.6712 64.4194C39.6591 64.5453 40.6111 64.6173 41.5451 64.6533C41.6169 63.1961 41.8504 61.3792 42.4072 59.4364C43.7543 54.8491 45.0116 53.0862 50.5797 53.428Z" fill="#C2D8EC"/>
<path d="M30.2473 44.3434C26.673 41.9868 32.7619 39.2345 30.2473 34.989C27.8045 30.8515 24.2302 30.1679 24.0147 30.132C22.7035 31.697 21.6258 33.6219 21.069 36.0504C18.8956 45.3508 18.7519 58.1591 32.0255 62.9083C33.5342 61.2893 34.1988 58.9147 34.1988 56.9898C34.1809 53.7878 33.8216 46.682 30.2473 44.3434Z" fill="#8ABC36"/>
<path d="M45.1737 30.1139C48.7121 37.8133 48.9456 38.8927 48.6582 41.717C48.3708 44.5593 52.7714 46.2323 56.9385 44.3254C60.7283 42.5984 60.8182 40.6916 65.0211 40.3498C63.6201 33.0642 59.4531 26.8939 53.3641 25.3828C50.4903 24.6632 47.0417 24.3034 43.9523 24.1235C43.7547 25.6166 43.9882 27.5595 45.1737 30.1139Z" fill="#8ABC36"/>
<path d="M64.2842 51.5751C63.1526 51.755 62.2186 51.9169 61.6438 52.0248C58.9855 52.5105 56.1476 53.8057 50.5795 53.4459C45.0115 53.0862 43.7362 54.8671 42.4071 59.4723C41.8503 61.4152 41.6168 63.2321 41.5449 64.6892C54.585 65.3188 61.6438 58.5549 64.2842 51.5751Z" fill="#8ABC36"/>
<path d="M82.1915 50.3338C82.7842 47.0238 83.0716 43.6598 82.9818 40.2419C82.8741 36.734 81.9401 33.0462 81.2755 29.6103C80.7726 27.0018 80.7007 24.7712 79.1201 22.5225C79.0483 22.4146 78.9585 22.2887 78.8148 22.2707C78.707 22.2527 78.5992 22.3066 78.5094 22.3426C76.3001 23.458 74.3783 25.041 72.169 26.1743C71.0734 26.732 67.4092 27.8833 67.068 29.1246C66.7985 30.042 68.451 32.4346 68.7923 33.352C69.385 34.9531 69.852 36.6081 70.2112 38.2811C71.6122 44.7572 71.702 51.8269 69.8879 58.2491C68.1636 64.3474 64.3019 69.7802 59.1829 73.4859C53.4352 77.6235 44.5981 77.9293 37.8446 76.652C35.5276 76.2203 31.7377 76.0584 31.7198 73.306C31.7198 72.8563 32.0431 68.431 32.3125 68.341C27.8221 69.7082 23.2779 71.0934 18.6079 71.3092C15.6981 71.4532 12.7884 71.1473 9.89656 71.4532C6.17853 71.8489 9.86063 75.4468 10.8126 76.5441C11.4592 77.2817 12.1058 78.0192 12.8243 78.7028C13.7403 79.5843 14.7641 80.3578 15.7879 81.1313C17.8715 82.7144 19.9729 84.2975 22.0565 85.8625C23.5832 87.0138 25.2716 89.3344 26.9779 90.018C27.5707 88.5249 27.894 86.8699 28.325 85.3048C28.5226 84.5673 28.8459 81.689 29.5464 81.3472C30.0853 81.0774 32.7615 82.2647 33.4979 82.3906C34.8989 82.6604 36.3179 82.8223 37.7009 83.1461C40.2874 83.7398 42.9277 84.0456 45.5681 84.2075C50.723 84.4953 56.0576 83.5059 60.7814 81.5811C62.2004 81.0054 63.5834 80.3038 64.8946 79.4763C73.085 74.3854 78.3118 65.4268 80.8264 56.2883C81.3653 54.3274 81.8323 52.3306 82.1915 50.3338Z" fill="#8ABC36"/>
<path d="M0.807442 39.6842C0.214713 42.9942 -0.0726705 46.3582 0.0171369 49.7761C0.124906 53.284 1.0589 56.9718 1.72348 60.4078C2.2264 63.0162 2.29825 65.2469 3.87886 67.4955C3.9507 67.6034 4.04051 67.7294 4.1842 67.7474C4.29197 67.7653 4.39974 67.7114 4.48955 67.6754C6.69881 66.5601 8.62069 64.977 10.8299 63.8437C11.9256 63.286 15.5897 62.1347 15.931 60.8935C16.2004 59.976 14.548 57.5835 14.2067 56.666C13.614 55.065 13.147 53.41 12.7877 51.737C11.3868 45.2608 11.2969 38.1911 13.1111 31.7689C14.8354 25.6706 18.6971 20.2379 23.8161 16.5321C29.5638 12.3946 38.4008 12.0887 45.1543 13.366C47.4714 13.7977 51.2612 13.9596 51.2792 16.712C51.2792 17.1617 50.9559 21.587 50.6865 21.677C55.1768 20.3098 59.7211 18.9246 64.3911 18.7088C67.3008 18.5649 70.2106 18.8707 73.1024 18.5649C76.8204 18.1691 73.1383 14.5713 72.1864 13.4739C71.5397 12.7364 70.8752 11.9988 70.1747 11.3152C69.2586 10.4337 68.2348 9.6602 67.211 8.88667C65.1275 7.30362 63.026 5.72057 60.9425 4.15551C59.4337 3.0042 57.7274 0.68359 56.039 0C55.4463 1.4931 55.123 3.14811 54.6919 4.71317C54.4943 5.45073 54.171 8.329 53.4705 8.6708C52.9317 8.94064 50.2554 7.75335 49.519 7.62742C48.118 7.35759 46.699 7.19568 45.316 6.87188C42.7295 6.27823 40.0892 5.97242 37.4489 5.81051C32.258 5.52269 26.9414 6.51209 22.2175 8.41895C20.7986 8.9946 19.4155 9.69618 18.1043 10.5237C9.89595 15.5966 4.66916 24.5733 2.17251 33.7118C1.63367 35.6906 1.16667 37.6694 0.807442 39.6842Z" fill="#8ABC36"/>
</g>
<defs>
<clipPath id="clip0_192_19914">
<rect width="83" height="90" fill="white"/>
</clipPath>
</defs>
</svg>

<svg width="83" height="90" fill="none" xmlns="http://www.w3.org/2000/svg"><g clip-path="url(#clip0_192_19914)"><path opacity=".3" d="M50.58 53.428c5.568.36 8.406-.935 11.064-1.421.575-.108 1.509-.27 2.64-.45.97-2.536 1.347-5.109 1.222-7.358a27.171 27.171 0 00-.485-3.85c-4.203.343-4.293 2.25-8.083 3.977-4.185 1.906-8.586.215-8.28-2.609.287-2.842.072-3.904-3.485-11.603-1.167-2.555-1.4-4.497-1.203-5.99-4.58-.27-8.37-.144-8.37-.144s-7.167.863-11.585 6.134c.197.036 3.79.72 6.232 4.857 2.515 4.264-3.574 7.016 0 9.355 3.575 2.356 3.934 9.444 3.934 12.646 0 1.925-.647 4.317-2.173 5.918 1.921.684 4.13 1.206 6.663 1.53.988.125 1.94.197 2.874.233.072-1.457.305-3.274.862-5.217 1.347-4.587 2.605-6.35 8.173-6.008z" fill="#C2D8EC"/><path d="M30.247 44.343c-3.574-2.356 2.515-5.109 0-9.354-2.442-4.137-6.017-4.821-6.232-4.857a13.908 13.908 0 00-2.946 5.918c-2.173 9.3-2.317 22.11 10.957 26.858 1.508-1.619 2.173-3.993 2.173-5.918-.018-3.202-.377-10.308-3.952-12.647zm14.927-14.229c3.538 7.7 3.772 8.779 3.484 11.603-.287 2.842 4.113 4.515 8.28 2.608 3.79-1.727 3.88-3.633 8.083-3.975-1.4-7.286-5.568-13.456-11.657-14.967-2.874-.72-6.322-1.08-9.412-1.26-.197 1.494.036 3.436 1.222 5.99zm19.11 21.461c-1.131.18-2.065.342-2.64.45-2.658.486-5.496 1.78-11.064 1.42-5.569-.359-6.844 1.422-8.173 6.027a23.276 23.276 0 00-.862 5.217c13.04.63 20.099-6.134 22.74-13.114z" fill="#8ABC36"/><path d="M82.192 50.334c.592-3.31.88-6.674.79-10.092-.108-3.508-1.042-7.196-1.707-10.632-.502-2.608-.574-4.839-2.155-7.087-.072-.108-.162-.234-.305-.252-.108-.018-.216.036-.306.072-2.209 1.115-4.13 2.698-6.34 3.831-1.096.558-4.76 1.71-5.101 2.95-.27.918 1.383 3.31 1.724 4.228a35.947 35.947 0 011.42 4.93c1.4 6.475 1.49 13.545-.324 19.967-1.724 6.098-5.586 11.531-10.705 15.237-5.748 4.138-14.585 4.443-21.338 3.166-2.317-.432-6.107-.594-6.125-3.346 0-.45.323-4.875.593-4.965-4.49 1.367-9.035 2.752-13.705 2.968-2.91.144-5.82-.162-8.711.144-3.718.396-.036 3.994.916 5.091.646.738 1.293 1.475 2.011 2.159.916.881 1.94 1.655 2.964 2.428 2.084 1.583 4.185 3.166 6.268 4.731 1.527 1.152 3.216 3.472 4.922 4.156.593-1.493.916-3.148 1.347-4.713.198-.738.52-3.616 1.221-3.958.54-.27 3.215.918 3.952 1.044 1.4.27 2.82.431 4.203.755 2.586.594 5.227.9 7.867 1.061 5.155.288 10.49-.701 15.213-2.626a26.093 26.093 0 004.114-2.105c8.19-5.09 13.417-14.05 15.931-23.188a67.946 67.946 0 001.366-5.954zM.807 39.684c-.592 3.31-.88 6.674-.79 10.092.108 3.508 1.042 7.196 1.706 10.632.503 2.608.575 4.839 2.156 7.088.072.107.162.233.305.251.108.018.216-.036.306-.072 2.209-1.115 4.13-2.698 6.34-3.831 1.096-.558 4.76-1.71 5.101-2.95.27-.918-1.383-3.31-1.724-4.228a35.956 35.956 0 01-1.42-4.929c-1.4-6.476-1.49-13.546.324-19.968 1.724-6.098 5.586-11.531 10.705-15.237 5.748-4.137 14.585-4.443 21.338-3.166 2.317.432 6.107.594 6.125 3.346 0 .45-.323 4.875-.593 4.965 4.49-1.367 9.035-2.752 13.705-2.968 2.91-.144 5.82.162 8.711-.144 3.718-.396.036-3.994-.916-5.091a38.15 38.15 0 00-2.011-2.159c-.916-.881-1.94-1.655-2.964-2.428a1431.79 1431.79 0 00-6.268-4.731C59.433 3.004 57.727.684 56.038 0c-.593 1.493-.916 3.148-1.347 4.713-.198.738-.521 3.616-1.221 3.958-.54.27-3.216-.918-3.952-1.044-1.401-.27-2.82-.431-4.203-.755-2.587-.594-5.227-.9-7.867-1.061-5.191-.288-10.508.701-15.231 2.608a26.09 26.09 0 00-4.114 2.105C9.896 15.597 4.67 24.574 2.173 33.712a68.356 68.356 0 00-1.366 5.972z" fill="#8ABC36"/></g><defs><clipPath id="clip0_192_19914"><path fill="#fff" d="M0 0h83v90H0z"/></clipPath></defs></svg>
